lib/svgs/team-location.svg

<?xml version="1.0" encoding="UTF-8"?>
<svg width="16px" height="16px" viewBox="0 0 16 16" version="1.1" xmlns="http://www.w3.org/2000/svg" xmlns:xlink="http://www.w3.org/1999/xlink">
    <!-- Generator: sketchtool 51.3 (57544) - http://www.bohemiancoding.com/sketch -->
    <title>team/team-location</title>
    <desc>Created with sketchtool.</desc>
    <defs></defs>
    <g id="Icons" stroke="none" stroke-width="1" fill="none" fill-rule="evenodd">
        <g id="Web" transform="translate(-387.000000, -2444.000000)" fill="#000000">
            <g id="team/team-location" transform="translate(387.000000, 2444.000000)">
                <path d="M15.3103256,15.0666667 L13.3103256,11.0666667 C13.1769922,10.8 12.9769922,10.6666667 12.7103256,10.6666667 L12.3103256,12 L13.6436589,14.6666667 L2.44365891,14.6666667 L3.77699224,12 L3.37699224,10.6666667 C3.11032558,10.6666667 2.91032558,10.8 2.77699224,11.0666667 L0.776992243,15.0666667 C0.64365891,15.2666667 0.710325576,15.5333333 0.776992243,15.7333333 C0.910325576,15.8666667 1.17699224,16 1.37699224,16 L14.7103256,16 C14.9103256,16 15.1769922,15.8666667 15.3103256,15.6666667 C15.3769922,15.4666667 15.3769922,15.2666667 15.3103256,15.0666667 M8.04365891,0 C5.44365891,0 2.71032558,2 2.71032558,5.33333333 C2.71032558,8.4 7.04365891,12.8666667 7.57699224,13.4 C7.71032558,13.5333333 7.84365891,13.6 8.04365891,13.6 C8.24365891,13.6 8.37699224,13.5333333 8.51032558,13.4 C9.04365891,12.8666667 13.3769922,8.4 13.3769922,5.33333333 C13.3769922,2 10.6436589,0 8.04365891,0 M8.04365891,7.33333333 C6.91032558,7.33333333 6.04365891,6.46666667 6.04365891,5.33333333 C6.04365891,4.2 6.91032558,3.33333333 8.04365891,3.33333333 C9.17699224,3.33333333 10.0436589,4.2 10.0436589,5.33333333 C10.0436589,6.46666667 9.17699224,7.33333333 8.04365891,7.33333333" id="Shape"></path>
            </g>
        </g>
    </g>
</svg>

<svg xmlns="http://www.w3.org/2000/svg" viewBox="0 0 16 16">
    <path d="M15.31 15.067l-2-4c-.133-.267-.333-.4-.6-.4L12.31 12l1.334 2.667h-11.2L3.777 12l-.4-1.333c-.267 0-.467.133-.6.4l-2 4c-.133.2-.067.466 0 .666.133.134.4.267.6.267H14.71c.2 0 .467-.133.6-.333.067-.2.067-.4 0-.6M8.044 0C5.444 0 2.71 2 2.71 5.333c0 3.067 4.334 7.534 4.867 8.067.133.133.267.2.467.2s.333-.067.466-.2c.534-.533 4.867-5 4.867-8.067C13.377 2 10.644 0 8.044 0m0 7.333c-1.134 0-2-.866-2-2 0-1.133.866-2 2-2 1.133 0 2 .867 2 2 0 1.134-.867 2-2 2"/>
</svg>
